Apricity Icons/22/panel/weather-snow-scattered.svg

<svg xmlns="http://www.w3.org/2000/svg" width="22" height="22" version="1.1">
 <defs>
  <style id="current-color-scheme" type="text/css">
   .ColorScheme-Text { color:#dfdfdf; } .ColorScheme-Highlight { color:#4285f4; }
  </style>
 </defs>
 <g transform="translate(-57.000003,-705.29)">
  <path style="fill:currentColor" class="ColorScheme-Text" d="M 11 3 C 8.92893 3 7.16529 4.26792 6.40625 6.0625 C 4.47842 6.3491 3 7.99242 3 10 C 3 12.20914 4.79086 14 7 14 L 8.1855469 14 C 8.6024017 12.841743 9.7061742 12 11 12 C 12.293826 12 13.397598 12.841743 13.814453 14 L 15.5 14 C 17.433 14 19 12.433 19 10.5 C 19 8.70346 17.64921 7.2313 15.90625 7.03125 C 15.45168 4.73786 13.42687 3 11 3 z M 11 13 A 2 2 0 0 0 9 15 A 2 2 0 0 0 11 17 A 2 2 0 0 0 13 15 A 2 2 0 0 0 11 13 z M 6 15 A 2 2 0 0 0 4 17 A 2 2 0 0 0 6 19 A 2 2 0 0 0 8 17 A 2 2 0 0 0 6 15 z M 16 15 A 2 2 0 0 0 14 17 A 2 2 0 0 0 16 19 A 2 2 0 0 0 18 17 A 2 2 0 0 0 16 15 z" transform="translate(57.000003,705.29)"/>
 </g>
</svg>

<svg xmlns="http://www.w3.org/2000/svg" width="22" height="22"><defs><style id="current-color-scheme" type="text/css"></style></defs><path d="M11 3C8.929 3 7.165 4.268 6.406 6.063A3.981 3.981 0 0 0 3 10a4 4 0 0 0 4 4h1.186c.416-1.158 1.52-2 2.814-2s2.398.842 2.814 2H15.5a3.5 3.5 0 0 0 3.5-3.5 3.49 3.49 0 0 0-3.094-3.469A5.011 5.011 0 0 0 11 3zm0 10a2 2 0 0 0-2 2 2 2 0 0 0 2 2 2 2 0 0 0 2-2 2 2 0 0 0-2-2zm-5 2a2 2 0 0 0-2 2 2 2 0 0 0 2 2 2 2 0 0 0 2-2 2 2 0 0 0-2-2zm10 0a2 2 0 0 0-2 2 2 2 0 0 0 2 2 2 2 0 0 0 2-2 2 2 0 0 0-2-2z" fill="currentColor" color="#dfdfdf"/></svg>
